svgs/regular/square-x.svg

<svg xmlns="http://www.w3.org/2000/svg" viewBox="0 0 448 512"><!--! Font Awesome Pro 6.0.0-alpha3 by @fontawesome - https://fontawesome.com License - https://fontawesome.com/license (Commercial License) --><path d="M384 32H64C28.65 32 0 60.65 0 96v320c0 35.35 28.65 64 64 64h320c35.35 0 64-28.65 64-64V96C448 60.65 419.3 32 384 32zM400 416c0 8.822-7.178 16-16 16H64c-8.822 0-16-7.178-16-16V96c0-8.822 7.178-16 16-16h320c8.822 0 16 7.178 16 16V416zM327.5 133.7c-10.11-8.578-25.28-7.297-33.83 2.828L224 218.8L154.3 136.5C145.8 126.4 130.6 125.1 120.5 133.7C110.4 142.2 109.1 157.4 117.7 167.5L192.6 256l-74.88 88.5c-8.562 10.11-7.297 25.27 2.828 33.83C125 382.1 130.5 384 135.1 384c6.812 0 13.59-2.891 18.34-8.5L224 293.2l69.67 82.34C298.4 381.1 305.2 384 312 384c5.469 0 10.98-1.859 15.48-5.672c10.12-8.562 11.39-23.72 2.828-33.83L255.4 256l74.88-88.5C338.9 157.4 337.6 142.2 327.5 133.7z"/></svg>

<svg xmlns="http://www.w3.org/2000/svg" viewBox="0 0 448 512"><!-- Font Awesome Pro 6.0.0-alpha2 by @fontawesome - https://fontawesome.com License - https://fontawesome.com/license (Commercial License) --><path d="M384 32H64C28.654 32 0 60.654 0 96V416C0 451.346 28.654 480 64 480H384C419.346 480 448 451.346 448 416V96C448 60.654 419.346 32 384 32ZM400 416C400 424.822 392.822 432 384 432H64C55.178 432 48 424.822 48 416V96C48 87.178 55.178 80 64 80H384C392.822 80 400 87.178 400 96V416ZM327.5 133.672C317.391 125.094 302.219 126.375 293.672 136.5L224 218.84L154.328 136.5C145.781 126.406 130.609 125.141 120.5 133.672C110.375 142.234 109.109 157.391 117.672 167.5L192.557 256L117.672 344.5C109.109 354.609 110.375 369.766 120.5 378.328C125 382.141 130.516 384 135.984 384C142.797 384 149.578 381.109 154.328 375.5L224 293.16L293.672 375.5C298.422 381.109 305.203 384 312.016 384C317.484 384 323 382.141 327.5 378.328C337.625 369.766 338.891 354.609 330.328 344.5L255.443 256L330.328 167.5C338.891 157.391 337.625 142.234 327.5 133.672Z"/></svg>
